; generated by Slic3r 1.2.9 on 2018-11-20 at 20:46:56

; external perimeters extrusion width = 0.50mm
; perimeters extrusion width = 0.85mm
; infill extrusion width = 1.02mm
; solid infill extrusion width = 0.85mm
; top infill extrusion width = 0.85mm

M107
M190 S85 ; set bed temperature
M104 S225 ; set temperature
M42 P7 S160 ;(M355 P160 S1) Adjust case light to 63%
G21 ;metric values
G90 ;absolute positioning
M82 ;set extruder to absolute mode
M107 ;start with the fan off
G28 X0 Y0 ;move X/Y to min endstops
G28 Z0 ;move Z to min endstops
G29 ; auto bed leveling
G1 Z15.0 F9000 ;move the platform down 15mm
G92 E0 ;zero the extruded length
G1 F200 E3 ;extrude 3mm of feed stock
G92 E0 ;zero the extruded length again
G1 F9000 ; Put printing message on LCD screen
M 117 Printing...
M109 S225 ; wait for temperature to be reached
G21 ; set units to millimeters
G90 ; use absolute coordinates
M82 ; use absolute distances for extrusion
G92 E0
G1 Z0.350 F7800.000
G1 E-6.00000 F2400.00000
G92 E0
G1 X79.064 Y68.283 F7800.000
G1 E6.00000 F2400.00000
G1 X79.860 Y67.439 E6.10556 F1800.000
G1 X81.394 Y66.152 E6.28766
G1 X82.364 Y65.514 E6.39322
G1 X84.154 Y64.615 E6.57531
G1 X85.245 Y64.218 E6.68090
G1 X87.194 Y63.756 E6.86297
G1 X88.347 Y63.621 E6.96855
G1 X89.348 Y63.563 E7.05973
G1 X110.652 Y63.563 E8.99692
G1 X111.653 Y63.621 E9.08812
G1 X112.807 Y63.756 E9.19371 F1800.000
G1 X114.755 Y64.218 E9.37577
G1 X115.846 Y64.615 E9.48134
G1 X117.636 Y65.514 E9.66343
G1 X118.606 Y66.152 E9.76901
G1 X120.140 Y67.439 E9.95109
G1 X120.936 Y68.283 E10.05665
G1 X122.132 Y69.890 E10.23874
G1 X122.713 Y70.895 E10.34431
G1 X123.506 Y72.734 E10.52640
G1 X123.839 Y73.846 E10.63196
G1 X124.186 Y75.818 E10.81405
G1 X124.254 Y76.977 E10.91962
G1 X124.138 Y78.976 E11.10171
G1 X123.904 Y80.288 E11.22287
G1 X115.328 Y123.844 E15.25944
G1 X115.119 Y124.681 E15.33792
G1 X114.721 Y125.995 E15.46270
G1 X114.074 Y127.557 E15.61644
G1 X113.483 Y128.661 E15.73030
G1 X112.487 Y130.173 E15.89491
G1 X111.617 Y131.233 E16.01968
G1 X110.421 Y132.429 E16.17342
G1 X109.453 Y133.223 E16.28728
G1 X107.955 Y134.239 E16.45189
G1 X106.745 Y134.886 E16.57667
G1 X105.182 Y135.533 E16.73041
G1 X103.869 Y135.931 E16.85519
G1 X102.211 Y136.261 E17.00893
G1 X100.845 Y136.396 E17.13371
G1 X99.155 Y136.396 E17.28745
G1 X97.789 Y136.261 E17.41223
G1 X96.131 Y135.931 E17.56597
G1 X94.818 Y135.533 E17.69075
G1 X93.255 Y134.886 E17.84449
G1 X92.045 Y134.239 E17.96927
G1 X90.639 Y133.300 E18.12301
G1 X89.579 Y132.429 E18.24779
G1 X88.383 Y131.233 E18.40152
G1 X87.513 Y130.173 E18.52630
G1 X86.573 Y128.767 E18.68004
G1 X85.926 Y127.557 E18.80482
G1 X85.279 Y125.995 E18.95856
G1 X84.881 Y124.681 E19.08334
G1 X84.672 Y123.844 E19.16181
G1 X76.096 Y80.288 E23.19838
G1 X75.862 Y78.976 E23.31957
G1 X75.746 Y76.977 E23.50164
G1 X75.811 Y75.857 E23.60365
G1 X76.161 Y73.846 E23.78927
G1 X76.494 Y72.734 E23.89485
G1 X77.287 Y70.895 E24.07693
G1 X77.868 Y69.890 E24.18249
G1 X79.019 Y68.343 E24.35776
G1 E18.35776 F2400.00000
G92 E0
G1 X96.766 Y106.764 F7800.000
G1 E6.00000 F2400.00000
G1 X95.687 Y106.371 E6.10441 F1800.000
G1 X93.966 Y105.507 E6.27947
G1 X93.328 Y105.087 E6.34897
G1 X91.853 Y103.850 E6.52404
G1 X91.328 Y103.294 E6.59353
G1 X90.293 Y101.903 E6.75119
G1 X90.083 Y101.584 E6.78592
G1 X79.240 Y82.803 E8.75782
G1 X79.069 Y82.462 E8.79254
G1 X78.382 Y80.870 E8.95021
G1 X78.163 Y80.138 E9.01971
G1 X77.828 Y78.241 E9.19479
G1 X77.784 Y77.479 E9.26428
G1 X77.896 Y75.556 E9.43935
G1 X78.029 Y74.804 E9.50884
G1 X78.581 Y72.959 E9.68391
G1 X78.883 Y72.258 E9.75340
G1 X79.846 Y70.590 E9.92846
G1 X80.302 Y69.977 E9.99795
G1 X81.624 Y68.577 E10.17300
G1 X82.209 Y68.086 E10.24251
G1 X83.818 Y67.028 E10.41757
G1 X84.501 Y66.685 E10.48707
G1 X86.310 Y66.026 E10.66214
G1 X87.054 Y65.850 E10.73163
G1 X88.776 Y65.649 E10.88931
G1 X89.157 Y65.627 E10.92402
G1 X110.843 Y65.627 E12.89592
G1 X111.224 Y65.649 E12.93064
G1 X112.947 Y65.850 E13.08833
G1 X113.690 Y66.026 E13.15782
G1 X115.499 Y66.685 E13.33288
G1 X116.182 Y67.028 E13.40237
G1 X117.439 Y67.854 E13.53913
G1 X117.791 Y68.086 E13.57744
G1 X118.376 Y68.577 E13.64693
G1 X119.697 Y69.977 E13.82198
G1 X120.154 Y70.590 E13.89149
G1 X121.117 Y72.258 E14.06655
G1 X121.419 Y72.960 E14.13605
G1 X121.971 Y74.804 E14.31110
G1 X122.104 Y75.557 E14.38061
G1 X122.216 Y77.478 E14.55566
G1 X122.172 Y78.242 E14.62517
G1 X121.837 Y80.137 E14.80021
G1 X121.618 Y80.870 E14.86972
G1 X120.931 Y82.462 E15.02738
G1 X120.760 Y82.803 E15.06211
G1 X109.917 Y101.584 E17.03402
G1 X109.707 Y101.903 E17.06874
G1 X108.672 Y103.294 E17.22640
G1 X108.147 Y103.850 E17.29591
G1 X106.672 Y105.087 E17.47097
G1 X106.034 Y105.507 E17.54047
G1 X104.313 Y106.371 E17.71553
G1 X103.234 Y106.764 E17.81994
G1 X103.259 Y107.664 E17.90185
G1 X104.892 Y108.160 E18.05702
G1 X105.488 Y108.406 E18.11564
G1 X107.266 Y109.357 E18.29904
G1 X107.802 Y109.715 E18.35766
G1 X109.361 Y110.995 E18.54105
G1 X109.817 Y111.451 E18.59967
G1 X111.097 Y113.010 E18.78307
G1 X111.455 Y113.546 E18.84169
G1 X112.406 Y115.325 E19.02508
G1 X112.652 Y115.920 E19.08371
G1 X113.238 Y117.850 E19.26710
G1 X113.364 Y118.483 E19.32572
G1 X113.561 Y120.490 E19.50912
G1 X113.561 Y121.134 E19.56774
G1 X113.364 Y123.142 E19.75114
G1 X113.238 Y123.774 E19.80976
G1 X112.652 Y125.704 E19.99316
G1 X112.406 Y126.300 E20.05178
G1 X111.455 Y128.078 E20.23518
G1 X111.097 Y128.614 E20.29380
G1 X109.817 Y130.174 E20.47719
G1 X109.361 Y130.629 E20.53581
G1 X107.802 Y131.909 E20.71921
G1 X107.266 Y132.267 E20.77783
G1 X105.488 Y133.218 E20.96122
G1 X104.892 Y133.465 E21.01985
G1 X102.962 Y134.050 E21.20324
G1 X102.330 Y134.176 E21.26186
G1 X100.322 Y134.373 E21.44526
G1 X99.678 Y134.373 E21.50388
G1 X97.670 Y134.176 E21.68728
G1 X97.038 Y134.050 E21.74590
G1 X95.108 Y133.465 E21.92930
G1 X94.512 Y133.218 E21.98792
G1 X92.734 Y132.267 E22.17132
G1 X92.198 Y131.909 E22.22993
G1 X90.639 Y130.629 E22.41333
G1 X90.183 Y130.174 E22.47195
G1 X88.903 Y128.614 E22.65535
G1 X88.545 Y128.078 E22.71397
G1 X87.594 Y126.300 E22.89736
G1 X87.348 Y125.704 E22.95598
G1 X86.762 Y123.774 E23.13938
G1 X86.636 Y123.142 E23.19800
G1 X86.439 Y121.134 E23.38140
G1 X86.439 Y120.490 E23.44002
G1 X86.636 Y118.483 E23.62342
G1 X86.762 Y117.850 E23.68204
G1 X87.348 Y115.920 E23.86544
G1 X87.594 Y115.325 E23.92406
G1 X88.545 Y113.546 E24.10746
G1 X88.903 Y113.010 E24.16607
G1 X90.183 Y111.451 E24.34947
G1 X90.639 Y110.995 E24.40809
G1 X92.198 Y109.715 E24.59148
G1 X92.734 Y109.357 E24.65011
G1 X94.513 Y108.406 E24.83350
G1 X95.108 Y108.160 E24.89212
G1 X96.741 Y107.664 E25.04730
G1 X96.764 Y106.839 E25.12238
G1 X96.920 Y106.113 F7800.000
G1 X96.584 Y106.033 E25.15374 F1800.000
G1 X95.935 Y105.796 E25.21662
G1 X94.279 Y104.965 E25.38506
G1 X93.701 Y104.585 E25.44795
G1 X92.282 Y103.394 E25.61640
G1 X91.808 Y102.891 E25.67927
G1 X90.805 Y101.544 E25.83197
G1 X90.615 Y101.256 E25.86339
G1 X79.790 Y82.506 E27.83199
G1 X79.635 Y82.198 E27.86340
G1 X78.970 Y80.656 E28.01611
G1 X78.772 Y79.993 E28.07899
G1 X78.450 Y78.169 E28.24745
G1 X78.410 Y77.479 E28.31032
G1 X78.518 Y75.629 E28.47877
G1 X78.638 Y74.948 E28.54164
G1 X79.169 Y73.174 E28.71009
G1 X79.443 Y72.539 E28.77296
G1 X80.177 Y71.268 E28.90640
G1 X80.369 Y70.934 E28.94140
G1 X80.782 Y70.380 E29.00428
G1 X82.053 Y69.032 E29.17271
G1 X82.583 Y68.588 E29.23559
G1 X84.131 Y67.570 E29.40404
G1 X84.749 Y67.260 E29.46692
G1 X86.489 Y66.626 E29.63537
G1 X87.162 Y66.466 E29.69824
G1 X88.830 Y66.271 E29.85096
G1 X89.175 Y66.251 E29.88237
G1 X110.825 Y66.251 E31.85096
G1 X111.170 Y66.271 E31.88237 F1800.000
G1 X112.838 Y66.466 E32.03509
G1 X113.511 Y66.626 E32.09796
G1 X115.251 Y67.260 E32.26640
G1 X115.869 Y67.570 E32.32928
G1 X117.417 Y68.588 E32.49773
G1 X117.947 Y69.032 E32.56061
G1 X119.218 Y70.380 E32.72904
G1 X119.631 Y70.934 E32.79192
G1 X120.557 Y72.539 E32.96037
G1 X120.831 Y73.174 E33.02325
G1 X121.362 Y74.948 E33.19168
G1 X121.482 Y75.629 E33.25456
G1 X121.590 Y77.478 E33.42300
G1 X121.550 Y78.169 E33.48589
G1 X121.228 Y79.993 E33.65432
G1 X121.030 Y80.656 E33.71721
G1 X120.365 Y82.198 E33.86991
G1 X120.210 Y82.506 E33.90133
G1 X109.385 Y101.256 E35.86993
G1 X109.195 Y101.544 E35.90134
G1 X108.192 Y102.891 E36.05404
G1 X107.718 Y103.394 E36.11693
G1 X106.299 Y104.585 E36.28537
G1 X105.721 Y104.965 E36.34825
G1 X104.065 Y105.796 E36.51670
G1 X103.416 Y106.033 E36.57958
G1 X101.613 Y106.460 E36.74801
G1 X100.926 Y106.540 E36.81090
G1 X99.074 Y106.540 E36.97934
G1 X98.387 Y106.460 E37.04222
G1 X96.993 Y106.130 E37.17248
G1 X97.064 Y105.505 F7800.000
G1 X96.764 Y105.433 E37.20053 F1800.000
G1 X96.183 Y105.222 E37.25679
G1 X94.592 Y104.423 E37.41861
G1 X94.075 Y104.083 E37.47487
G1 X92.712 Y102.939 E37.63670
G1 X92.287 Y102.489 E37.69296
G1 X91.317 Y101.186 E37.84070
G1 X91.147 Y100.927 E37.86881
G1 X80.341 Y82.210 E39.83410
G1 X80.202 Y81.934 E39.86221
G1 X79.558 Y80.442 E40.00995
G1 X79.381 Y79.849 E40.06621
G1 X79.072 Y78.096 E40.22805
G1 X79.036 Y77.479 E40.28430
G1 X79.139 Y75.702 E40.44613
G1 X79.247 Y75.093 E40.50239
G1 X79.757 Y73.388 E40.66422
G1 X80.002 Y72.820 E40.72047
G1 X80.718 Y71.580 E40.85061
G1 X80.892 Y71.278 E40.88229
G1 X81.261 Y70.782 E40.93855
G1 X82.483 Y69.488 E41.10037
G1 X82.957 Y69.090 E41.15663
G1 X84.444 Y68.112 E41.31846
G1 X84.997 Y67.834 E41.37472
G1 X86.669 Y67.226 E41.53655
G1 X87.271 Y67.083 E41.59281
G1 X88.885 Y66.894 E41.74056
G1 X89.193 Y66.876 E41.76866
G1 X110.807 Y66.876 E43.73394
G1 X111.115 Y66.894 E43.76205
G1 X112.729 Y67.083 E43.90981 F1800.000
G1 X113.331 Y67.226 E43.96606
G1 X115.003 Y67.834 E44.12788
G1 X115.556 Y68.112 E44.18414
G1 X117.043 Y69.090 E44.34597
G1 X117.517 Y69.488 E44.40223
G1 X118.738 Y70.782 E44.56404
G1 X119.108 Y71.278 E44.62031
G1 X119.998 Y72.820 E44.78213
G1 X120.243 Y73.388 E44.83839
G1 X120.753 Y75.093 E45.00021
G1 X120.861 Y75.702 E45.05647
G1 X120.964 Y77.478 E45.21829
G1 X120.928 Y78.096 E45.27456
G1 X120.619 Y79.849 E45.43637
G1 X120.442 Y80.442 E45.49264
G1 X119.798 Y81.933 E45.64038
G1 X119.659 Y82.210 E45.66849
G1 X108.853 Y100.927 E47.63379
G1 X108.683 Y101.186 E47.66189
G1 X107.713 Y102.489 E47.80963
G1 X107.288 Y102.939 E47.86590
G1 X105.925 Y104.083 E48.02772
G1 X105.408 Y104.423 E48.08398
G1 X103.817 Y105.222 E48.24581
G1 X103.236 Y105.433 E48.30207
G1 X101.504 Y105.844 E48.46389
G1 X100.890 Y105.916 E48.52015
G1 X99.110 Y105.916 E48.68198
G1 X98.496 Y105.844 E48.73824
G1 X97.137 Y105.522 E48.86518
G1 X97.208 Y104.896 F7800.000
G1 X96.943 Y104.834 E48.88993 F1800.000
G1 X96.430 Y104.647 E48.93957
G1 X94.905 Y103.881 E49.09477
G1 X94.449 Y103.581 E49.14442
G1 X93.141 Y102.484 E49.29963
G1 X92.767 Y102.087 E49.34927
G1 X91.829 Y100.827 E49.49204
G1 X91.679 Y100.599 E49.51684
G1 X80.891 Y81.913 E51.47883
G1 X80.768 Y81.669 E51.50363
G1 X80.146 Y80.228 E51.64641
G1 X79.990 Y79.705 E51.69605
G1 X79.693 Y78.023 E51.85127
G1 X79.662 Y77.479 E51.90091
G1 X79.761 Y75.774 E52.05612
G1 X79.856 Y75.237 E52.10575
G1 X80.345 Y73.602 E52.26096
G1 X80.562 Y73.100 E52.31060
G1 X81.259 Y71.893 E52.43743
G1 X81.415 Y71.622 E52.46580
G1 X81.741 Y71.184 E52.51544
G1 X82.912 Y69.943 E52.67064
G1 X83.331 Y69.592 E52.72028
G1 X84.757 Y68.654 E52.87549
G1 X85.244 Y68.409 E52.92513
G1 X86.848 Y67.825 E53.08035
G1 X87.380 Y67.699 E53.12998
G1 X88.939 Y67.517 E53.27277
G1 X89.212 Y67.501 E53.29756
G1 X110.788 Y67.501 E55.25954
G1 X111.061 Y67.517 E55.28434 F1800.000
G1 X112.621 Y67.699 E55.42714
G1 X113.152 Y67.825 E55.47677
G1 X114.756 Y68.409 E55.63198
G1 X115.243 Y68.654 E55.68162
G1 X116.670 Y69.592 E55.83683
G1 X117.088 Y69.943 E55.88646
G1 X118.259 Y71.184 E56.04166
G1 X118.585 Y71.622 E56.09131
G1 X119.438 Y73.101 E56.24651
G1 X119.655 Y73.602 E56.29615
G1 X120.144 Y75.237 E56.45135
G1 X120.239 Y75.775 E56.50100
G1 X120.338 Y77.478 E56.65619
G1 X120.307 Y78.024 E56.70584
G1 X120.010 Y79.704 E56.86104
G1 X119.854 Y80.227 E56.91069
G1 X119.232 Y81.669 E57.05346
G1 X119.109 Y81.913 E57.07827
G1 X108.321 Y100.599 E59.04026
G1 X108.171 Y100.827 E59.06506
G1 X107.233 Y102.087 E59.20783
G1 X106.859 Y102.484 E59.25748
G1 X105.551 Y103.581 E59.41268
G1 X105.095 Y103.881 E59.46233
G1 X103.570 Y104.647 E59.61753
G1 X103.057 Y104.834 E59.66718
G1 X101.396 Y105.227 E59.82238
G1 X100.853 Y105.291 E59.87202
G1 X99.147 Y105.291 E60.02723
G1 X98.604 Y105.227 E60.07687
G1 X97.281 Y104.914 E60.20051
G1 X97.352 Y104.288 F7800.000
G1 X97.123 Y104.234 E60.22194 F1800.000
G1 X96.678 Y104.072 E60.26497
G1 X95.218 Y103.339 E60.41355
G1 X94.823 Y103.079 E60.45657
G1 X93.571 Y102.028 E60.60516
G1 X93.246 Y101.684 E60.64818
G1 X92.341 Y100.469 E60.78600
G1 X92.211 Y100.271 E60.80749
G1 X81.441 Y81.616 E62.76617
G1 X80.735 Y80.013 E62.92545
G1 X80.599 Y79.560 E62.96848
G1 X80.315 Y77.951 E63.11707
G1 X80.288 Y77.479 E63.16009
G1 X80.383 Y75.847 E63.30868
G1 X80.465 Y75.381 E63.35170
G1 X80.934 Y73.816 E63.50029
G1 X81.121 Y73.381 E63.54331
G1 X81.938 Y71.966 E63.69189
G1 X82.221 Y71.587 E63.73491
G1 X83.342 Y70.398 E63.88349
G1 X83.704 Y70.094 E63.92652
G1 X85.070 Y69.196 E64.07511
G1 X85.492 Y68.984 E64.11813
G1 X87.028 Y68.425 E64.26672
G1 X87.488 Y68.316 E64.30974
G1 X89.230 Y68.126 E64.46902
G1 X110.770 Y68.126 E66.42770
G1 X111.006 Y68.140 E66.44919
G1 X112.512 Y68.316 E66.58702 F1800.000
G1 X112.972 Y68.425 E66.63004
G1 X114.508 Y68.984 E66.77862
G1 X114.930 Y69.196 E66.82164
G1 X116.296 Y70.094 E66.97023
G1 X116.658 Y70.398 E67.01325
G1 X117.779 Y71.587 E67.16183
G1 X118.062 Y71.966 E67.20486
G1 X118.879 Y73.381 E67.35344
G1 X119.066 Y73.816 E67.39647
G1 X119.535 Y75.381 E67.54505
G1 X119.617 Y75.847 E67.58807
G1 X119.712 Y77.478 E67.73665
G1 X119.685 Y77.951 E67.77968
G1 X119.401 Y79.560 E67.92826
G1 X119.265 Y80.013 E67.97129
G1 X118.559 Y81.616 E68.13057
G1 X107.789 Y100.271 E70.08925
G1 X106.754 Y101.684 E70.24852
G1 X106.429 Y102.028 E70.29155
G1 X105.177 Y103.079 E70.44014
G1 X104.782 Y103.339 E70.48316
G1 X103.322 Y104.072 E70.63175
G1 X102.877 Y104.234 E70.67477
G1 X101.287 Y104.611 E70.82335
G1 X100.817 Y104.666 E70.86638
G1 X99.183 Y104.666 E71.01497
G1 X98.713 Y104.611 E71.05799
G1 X97.425 Y104.306 E71.17832
G1 X97.496 Y103.680 F7800.000
G1 X97.303 Y103.634 E71.19644 F1800.000
G1 X96.926 Y103.497 E71.23285
G1 X95.531 Y102.797 E71.37481
G1 X95.197 Y102.577 E71.41122
G1 X94.001 Y101.573 E71.55319
G1 X93.726 Y101.282 E71.58959
G1 X92.853 Y100.110 E71.72244
G1 X81.991 Y81.320 E73.69597
G1 X81.323 Y79.799 E73.84699
G1 X81.208 Y79.416 E73.88339
G1 X80.937 Y77.878 E74.02537
G1 X80.914 Y77.479 E74.06177
G1 X81.004 Y75.920 E74.20374
G1 X81.074 Y75.526 E74.24014
G1 X81.522 Y74.030 E74.38211
G1 X81.680 Y73.662 E74.41851
G1 X82.461 Y72.310 E74.56048
G1 X82.700 Y71.989 E74.59688
G1 X83.771 Y70.854 E74.73884
G1 X84.078 Y70.596 E74.77525
G1 X85.383 Y69.738 E74.91721
G1 X85.740 Y69.559 E74.95362
G1 X87.207 Y69.025 E75.09559
G1 X87.597 Y68.932 E75.13199
G1 X89.248 Y68.751 E75.28301
G1 X110.752 Y68.751 E77.23838
G1 X112.403 Y68.932 E77.38940 F1800.000
G1 X112.793 Y69.025 E77.42580
G1 X114.260 Y69.559 E77.56777
G1 X114.617 Y69.738 E77.60417
G1 X115.922 Y70.596 E77.74614
G1 X116.229 Y70.854 E77.78254
G1 X117.300 Y71.989 E77.92450
G1 X117.539 Y72.310 E77.96091
G1 X118.320 Y73.662 E78.10288
G1 X118.478 Y74.030 E78.13928
G1 X118.926 Y75.526 E78.28124
G1 X118.996 Y75.920 E78.31765
G1 X119.086 Y77.478 E78.45961
G1 X119.063 Y77.878 E78.49602
G1 X118.792 Y79.416 E78.63798
G1 X118.677 Y79.799 E78.67439
G1 X118.009 Y81.320 E78.82541
G1 X107.257 Y99.943 E80.78078
G1 X106.274 Y101.282 E80.93179
G1 X105.999 Y101.573 E80.96820
G1 X104.803 Y102.577 E81.11016
G1 X104.469 Y102.797 E81.14657
G1 X103.074 Y103.497 E81.28854
G1 X102.697 Y103.634 E81.32494
G1 X101.178 Y103.994 E81.46691
G1 X100.781 Y104.041 E81.50331
G1 X99.219 Y104.041 E81.64528
G1 X98.822 Y103.994 E81.68168
G1 X97.569 Y103.698 E81.79870
G1 X97.641 Y103.072 F7800.000
G1 X97.482 Y103.035 E81.81352 F1800.000
G1 X97.174 Y102.923 E81.84330
G1 X95.844 Y102.255 E81.97865
G1 X95.570 Y102.075 E82.00844
G1 X94.430 Y101.118 E82.14379
G1 X94.205 Y100.880 E82.17357
G1 X93.365 Y99.751 E82.30146
G1 X82.542 Y81.023 E84.26838
