; generated by Slic3r 1.2.9 on 2018-11-19 at 12:36:57

; external perimeters extrusion width = 0.50mm
; perimeters extrusion width = 0.85mm
; infill extrusion width = 1.02mm
; solid infill extrusion width = 0.85mm
; top infill extrusion width = 0.85mm
; support material extrusion width = 0.50mm

M107
M190 S80 ; set bed temperature
M104 S220 ; set temperature
M42 P7 S160 ;(M355 P160 S1) Adjust case light to 63%
G21 ;metric values
G90 ;absolute positioning
M82 ;set extruder to absolute mode
M107 ;start with the fan off
G28 X0 Y0 ;move X/Y to min endstops
G28 Z0 ;move Z to min endstops
G29 ; auto bed leveling
G1 Z15.0 F9000 ;move the platform down 15mm
G92 E0 ;zero the extruded length
G1 F200 E3 ;extrude 3mm of feed stock
G92 E0 ;zero the extruded length again
G1 F9000 ; Put printing message on LCD screen
M 117 Printing...
M109 S220 ; wait for temperature to be reached
G21 ; set units to millimeters
G90 ; use absolute coordinates
M82 ; use absolute distances for extrusion
G92 E0
G1 Z0.350 F7800.000
G1 E-6.00000 F2400.00000
G92 E0
G1 X74.738 Y74.167 F7800.000
G1 E6.00000 F2400.00000
G1 X78.028 Y72.604 E6.33124 F1800.000
G1 X82.978 Y71.441 E6.79359
G1 X84.950 Y71.213 E6.97410
G1 X114.307 Y71.213 E9.64355
G1 X115.636 Y71.316 E9.76477
G1 X117.445 Y71.613 E9.93141 F1800.000
G1 X121.841 Y72.574 E10.34057
G1 X124.285 Y73.515 E10.57872
G1 X126.334 Y75.146 E10.81688
G1 X127.799 Y77.317 E11.05504
G1 X128.551 Y79.873 E11.29729
G1 X130.155 Y92.045 E12.41360
G1 X130.229 Y93.171 E12.51629
G1 X130.229 Y107.118 E13.78441
G1 X130.151 Y108.271 E13.88956
G1 X128.547 Y120.154 E14.97982
G1 X127.807 Y122.666 E15.21798
G1 X126.347 Y124.840 E15.45613
G1 X124.301 Y126.476 E15.69429
G1 X121.978 Y127.395 E15.92145
G1 X117.044 Y128.558 E16.38240
G1 X115.066 Y128.787 E16.56347
G1 X85.709 Y128.787 E19.23291
G1 X84.597 Y128.716 E19.33417
G1 X83.285 Y128.545 E19.45452
G1 X82.497 Y128.405 E19.52723
G1 X78.101 Y127.413 E19.93701
G1 X75.664 Y126.456 E20.17517
G1 X73.626 Y124.810 E20.41333
G1 X72.176 Y122.629 E20.65149
G1 X71.375 Y119.000 E20.98941
G1 X71.375 Y81.000 E24.44473
G1 X71.773 Y78.411 E24.68289
G1 X72.929 Y76.061 E24.92105
G1 X74.686 Y74.221 E25.15239
G1 X76.146 Y75.575 F7800.000
G1 X77.282 Y74.439 E25.29850 F1800.000
G1 X80.465 Y74.439 E25.58790
G1 X80.674 Y74.362 E25.60813
G1 X81.472 Y73.683 E25.70341
G1 X84.306 Y72.798 E25.97338
G1 X85.303 Y72.897 E26.06449
G1 X85.428 Y72.884 E26.07594
G1 X85.704 Y72.798 E26.10219
G1 X87.012 Y72.926 E26.22171
G1 X91.046 Y72.926 E26.58848
G1 X93.685 Y74.398 E26.86329
G1 X93.840 Y74.439 E26.87782
G1 X104.214 Y74.439 E27.82112
G1 X104.381 Y74.391 E27.83693
G1 X105.946 Y73.425 E28.00423
G1 X107.703 Y72.926 E28.17028
G1 X110.409 Y72.926 E28.41632
G1 X110.867 Y72.798 E28.45960
G1 X111.864 Y72.897 E28.55071
G1 X111.990 Y72.884 E28.56216 F1800.000
G1 X112.265 Y72.798 E28.58841
G1 X113.567 Y72.927 E28.70735
G1 X114.229 Y72.830 E28.76822
G1 X118.398 Y73.480 E29.15181
G1 X119.642 Y74.378 E29.29135
G1 X119.829 Y74.439 E29.30925
G1 X122.718 Y74.439 E29.57189
G1 X126.561 Y78.282 E30.06615
G1 X126.561 Y86.414 E30.80561
G1 X126.748 Y86.716 E30.83786
G1 X126.848 Y86.766 E30.84804
G1 X128.142 Y90.661 E31.22116
G1 X128.186 Y90.751 E31.23033
G1 X128.562 Y91.925 E31.34239
G1 X128.493 Y92.062 E31.35632
G1 X128.464 Y92.264 E31.37485
G1 X128.616 Y93.087 E31.45100
G1 X128.315 Y95.206 E31.64565
G1 X126.595 Y98.638 E31.99469
G1 X126.561 Y98.780 E32.00795
G1 X126.561 Y100.378 E32.15328
G1 X126.748 Y100.680 E32.18553
G1 X126.841 Y100.727 E32.19499
G1 X128.112 Y104.553 E32.56164
G1 X128.186 Y104.697 E32.57634
G1 X128.225 Y104.892 E32.59440
G1 X128.555 Y105.885 E32.68955
G1 X128.493 Y106.008 E32.70204
G1 X128.464 Y106.210 E32.72058
G1 X128.616 Y107.033 E32.79673
G1 X128.315 Y109.153 E32.99138
G1 X126.595 Y112.584 E33.34042
G1 X126.561 Y112.726 E33.35368
G1 X126.561 Y121.718 E34.17128
G1 X122.718 Y125.561 E34.66554
G1 X120.299 Y125.561 E34.88546
G1 X120.169 Y125.642 E34.89940
G1 X114.868 Y127.403 E35.40726
G1 X114.558 Y127.247 E35.43882
G1 X114.448 Y127.216 E35.44924
G1 X113.315 Y127.103 E35.55279
G1 X113.190 Y127.116 E35.56424
G1 X112.914 Y127.202 E35.59049
G1 X111.917 Y127.103 E35.68161
G1 X111.792 Y127.116 E35.69306
G1 X111.516 Y127.202 E35.71930
G1 X110.324 Y127.084 E35.82824
G1 X110.193 Y127.098 E35.84021
G1 X109.277 Y127.403 E35.92803
G1 X105.669 Y125.595 E36.29495
G1 X105.527 Y125.561 E36.30821
G1 X96.534 Y125.561 E37.12598
G1 X96.403 Y125.642 E37.13992
G1 X91.103 Y127.403 E37.64778
G1 X90.793 Y127.247 E37.67933
G1 X90.683 Y127.216 E37.68975
G1 X89.549 Y127.103 E37.79331
G1 X89.424 Y127.116 E37.80476
G1 X89.149 Y127.202 E37.83101
G1 X88.151 Y127.103 E37.92213
G1 X88.026 Y127.116 E37.93358
G1 X87.751 Y127.202 E37.95982
G1 X86.753 Y127.103 E38.05094
G1 X86.628 Y127.116 E38.06239
G1 X86.353 Y127.202 E38.08864
G1 X84.831 Y127.051 E38.22768
G1 X84.700 Y127.066 E38.23964
G1 X84.199 Y127.232 E38.28771
G1 X80.931 Y125.595 E38.62002
G1 X80.789 Y125.561 E38.63328
G1 X77.282 Y125.561 E38.95220
G1 X73.439 Y121.718 E39.44645
G1 X73.439 Y78.282 E43.39603
G1 X76.093 Y75.628 E43.73735
G1 X76.588 Y76.017 F7800.000
G1 X77.541 Y75.064 E43.85993 F1800.000
G1 X80.695 Y75.064 E44.14668
G1 X80.903 Y74.987 E44.16691
G1 X81.780 Y74.242 E44.27151
G1 X84.371 Y73.432 E44.51834
G1 X85.368 Y73.531 E44.60946
G1 X85.493 Y73.518 E44.62091
G1 X85.769 Y73.432 E44.64715
G1 X86.981 Y73.551 E44.75792
G1 X90.883 Y73.551 E45.11272
G1 X93.522 Y75.023 E45.38753
G1 X93.677 Y75.064 E45.40206
G1 X104.391 Y75.064 E46.37626
G1 X104.558 Y75.016 E46.39208
G1 X106.201 Y74.002 E46.56759
G1 X107.790 Y73.551 E46.71783
G1 X110.504 Y73.551 E46.96463
G1 X110.932 Y73.432 E47.00501
G1 X111.929 Y73.531 E47.09613 F1800.000
G1 X112.055 Y73.518 E47.10758
G1 X112.330 Y73.432 E47.13383
G1 X113.586 Y73.557 E47.24861
G1 X114.231 Y73.463 E47.30785
G1 X118.153 Y74.075 E47.66881
G1 X119.440 Y75.003 E47.81309
G1 X119.628 Y75.064 E47.83099
G1 X122.459 Y75.064 E48.08845
G1 X125.936 Y78.541 E48.53563
G1 X125.936 Y86.800 E49.28664
G1 X126.123 Y87.102 E49.31889
G1 X126.336 Y87.209 E49.34062
G1 X127.887 Y91.876 E49.78780
G1 X127.841 Y91.969 E49.79724
G1 X127.812 Y92.171 E49.81578
G1 X127.983 Y93.100 E49.90170
G1 X127.711 Y95.018 E50.07782
G1 X125.970 Y98.490 E50.43103
G1 X125.936 Y98.632 E50.44429
G1 X125.936 Y100.764 E50.63814
G1 X126.123 Y101.066 E50.67039
G1 X126.329 Y101.169 E50.69140
G1 X127.537 Y104.805 E51.03977
G1 X127.590 Y104.911 E51.05048
G1 X127.618 Y105.048 E51.06321
G1 X127.880 Y105.836 E51.13877
G1 X127.841 Y105.915 E51.14677
G1 X127.812 Y106.117 E51.16531
G1 X127.983 Y107.046 E51.25123
G1 X127.711 Y108.964 E51.42734
G1 X125.970 Y112.436 E51.78055
G1 X125.936 Y112.578 E51.79381
G1 X125.936 Y121.459 E52.60132
G1 X122.459 Y124.936 E53.04851
G1 X119.913 Y124.936 E53.27997
G1 X119.612 Y125.123 E53.31223
G1 X119.584 Y125.178 E53.31781
G1 X114.917 Y126.728 E53.76499
G1 X114.579 Y126.559 E53.79933
G1 X114.337 Y126.540 E53.82141
G1 X114.247 Y126.568 E53.83002
G1 X113.250 Y126.469 E53.92113
G1 X113.125 Y126.482 E53.93258
G1 X112.849 Y126.568 E53.95883
G1 X111.852 Y126.469 E54.04995
G1 X111.727 Y126.482 E54.06140
G1 X111.451 Y126.568 E54.08765
G1 X110.253 Y126.449 E54.19711
G1 X110.122 Y126.463 E54.20908
G1 X109.325 Y126.728 E54.28546
G1 X105.817 Y124.970 E54.64229
G1 X105.675 Y124.936 E54.65555
G1 X96.148 Y124.936 E55.52184
G1 X95.846 Y125.123 E55.55410
G1 X95.819 Y125.178 E55.55968
G1 X91.152 Y126.728 E56.00686
G1 X90.814 Y126.559 E56.04121
G1 X90.572 Y126.540 E56.06328
G1 X90.482 Y126.568 E56.07189
G1 X89.484 Y126.469 E56.16300
G1 X89.359 Y126.482 E56.17445
G1 X89.084 Y126.568 E56.20070
G1 X88.086 Y126.469 E56.29182
G1 X87.961 Y126.482 E56.30327
G1 X87.686 Y126.568 E56.32952
G1 X86.689 Y126.469 E56.42063
G1 X86.563 Y126.482 E56.43208
G1 X86.288 Y126.568 E56.45833
G1 X84.760 Y126.416 E56.59790
G1 X84.630 Y126.431 E56.60987
G1 X84.247 Y126.558 E56.64650
G1 X81.079 Y124.970 E56.96872
G1 X80.937 Y124.936 E56.98198
G1 X77.541 Y124.936 E57.29080
G1 X74.064 Y121.459 E57.73799
G1 X74.064 Y78.541 E61.64049
G1 X76.535 Y76.070 E61.95828
G1 X77.030 Y76.459 F7800.000
G1 X77.800 Y75.688 E62.05732 F1800.000
G1 X80.924 Y75.688 E62.34142
G1 X81.133 Y75.612 E62.36165
G1 X82.088 Y74.800 E62.47557
G1 X84.436 Y74.067 E62.69926
G1 X85.433 Y74.166 E62.79038
G1 X85.558 Y74.153 E62.80183
G1 X85.834 Y74.067 E62.82807
G1 X86.950 Y74.176 E62.93008
G1 X90.721 Y74.176 E63.27292
G1 X93.422 Y75.688 E63.55446
G1 X104.676 Y75.688 E64.57772
G1 X104.916 Y75.582 E64.60164
G1 X105.028 Y75.460 E64.61667
G1 X106.455 Y74.580 E64.76916
G1 X107.877 Y74.176 E64.90358
G1 X110.600 Y74.176 E65.15115
G1 X110.997 Y74.067 E65.18863
G1 X111.994 Y74.166 E65.27975
G1 X112.120 Y74.153 E65.29120 F1800.000
G1 X112.395 Y74.067 E65.31745
G1 X113.606 Y74.187 E65.42807
G1 X114.233 Y74.096 E65.48570
G1 X117.909 Y74.669 E65.82402
G1 X119.238 Y75.628 E65.97304
G1 X119.426 Y75.688 E65.99094
G1 X122.200 Y75.688 E66.24322
G1 X125.312 Y78.800 E66.64333
G1 X125.312 Y87.186 E67.40588
G1 X125.498 Y87.488 E67.43813
G1 X125.825 Y87.652 E67.47140
G1 X127.212 Y91.828 E67.87152
G1 X127.188 Y91.876 E67.87646
G1 X127.159 Y92.078 E67.89500
G1 X127.350 Y93.113 E67.99070
G1 X127.106 Y94.829 E68.14827
G1 X125.345 Y98.342 E68.50566
G1 X125.312 Y98.484 E68.51892
G1 X125.312 Y101.150 E68.76129
G1 X125.498 Y101.452 E68.79355
G1 X125.818 Y101.612 E68.82609
G1 X127.205 Y105.788 E69.22620
G1 X127.159 Y106.024 E69.24810
G1 X127.350 Y107.059 E69.34379
G1 X127.106 Y108.775 E69.50137
G1 X125.345 Y112.289 E69.85875
G1 X125.312 Y112.431 E69.87201
G1 X125.312 Y121.200 E70.66943
G1 X122.200 Y124.312 E71.06954
G1 X119.528 Y124.312 E71.31255
G1 X119.226 Y124.498 E71.34480
G1 X119.141 Y124.666 E71.36193
G1 X114.966 Y126.054 E71.76204
G1 X114.634 Y125.887 E71.79579
G1 X114.392 Y125.868 E71.81786
G1 X114.182 Y125.933 E71.83784
G1 X113.185 Y125.834 E71.92896
G1 X113.060 Y125.847 E71.94041
G1 X112.784 Y125.933 E71.96666
G1 X111.787 Y125.834 E72.05778
G1 X111.662 Y125.847 E72.06923
G1 X111.386 Y125.933 E72.09547
G1 X110.182 Y125.814 E72.20547
G1 X110.052 Y125.829 E72.21744
G1 X109.374 Y126.054 E72.28239
G1 X105.965 Y124.345 E72.62912
G1 X105.823 Y124.312 E72.64238
G1 X95.762 Y124.312 E73.55720
G1 X95.460 Y124.498 E73.58945
G1 X95.376 Y124.666 E73.60657
G1 X91.200 Y126.054 E74.00669
G1 X90.868 Y125.887 E74.04043
G1 X90.626 Y125.868 E74.06251
G1 X90.417 Y125.933 E74.08249
G1 X89.420 Y125.834 E74.17360
G1 X89.294 Y125.847 E74.18505
G1 X89.019 Y125.933 E74.21130
G1 X88.022 Y125.834 E74.30242
G1 X87.896 Y125.847 E74.31387
G1 X87.621 Y125.933 E74.34012
G1 X86.624 Y125.834 E74.43123
G1 X86.498 Y125.847 E74.44269
G1 X86.223 Y125.933 E74.46893
G1 X84.690 Y125.781 E74.60903
G1 X84.559 Y125.796 E74.62100
G1 X84.296 Y125.883 E74.64620
G1 X81.227 Y124.345 E74.95832
G1 X81.085 Y124.312 E74.97158
G1 X77.800 Y124.312 E75.27031
G1 X74.688 Y121.200 E75.67042
G1 X74.688 Y78.800 E79.52586
G1 X76.977 Y76.512 E79.82011
G1 X77.472 Y76.901 F7800.000
G1 X78.059 Y76.313 E79.89562 F1800.000
G1 X81.154 Y76.313 E80.17707
G1 X81.363 Y76.237 E80.19729
G1 X82.395 Y75.359 E80.32053
G1 X84.501 Y74.701 E80.52109
G1 X85.498 Y74.800 E80.61220
G1 X85.623 Y74.787 E80.62366
G1 X85.899 Y74.701 E80.64990
G1 X86.919 Y74.801 E80.74315
G1 X90.558 Y74.801 E81.07402
G1 X92.687 Y75.988 E81.29567
G1 X92.790 Y76.155 E81.31349
G1 X93.074 Y76.313 E81.34304
G1 X104.951 Y76.313 E82.42302
G1 X105.191 Y76.207 E82.44694
G1 X105.430 Y75.947 E82.47909
G1 X106.709 Y75.157 E82.61576
G1 X107.964 Y74.801 E82.73437
G1 X110.695 Y74.801 E82.98270
G1 X111.062 Y74.701 E83.01729
G1 X112.059 Y74.800 E83.10841
G1 X112.185 Y74.787 E83.11986
G1 X112.460 Y74.701 E83.14611
G1 X113.625 Y74.817 E83.25257 F1800.000
G1 X114.235 Y74.729 E83.30858
G1 X117.665 Y75.264 E83.62426
G1 X119.037 Y76.253 E83.77803
G1 X119.224 Y76.313 E83.79593
G1 X121.941 Y76.313 E84.04302
G1 X124.687 Y79.059 E84.39606
G1 X124.687 Y87.572 E85.17015
G1 X124.873 Y87.874 E85.20241
G1 X125.314 Y88.094 E85.24722
G1 X126.538 Y91.779 E85.60026
G1 X126.507 Y91.985 E85.61923
G1 X126.717 Y93.126 E85.72471
G1 X126.502 Y94.640 E85.86374
G1 X124.720 Y98.195 E86.22530
G1 X124.687 Y98.337 E86.23856
G1 X124.687 Y101.536 E86.52946
G1 X124.873 Y101.837 E86.56171
G1 X125.306 Y102.055 E86.60580
G1 X126.533 Y105.747 E86.95954
G1 X126.507 Y105.931 E86.97652
G1 X126.717 Y107.072 E87.08199
G1 X126.502 Y108.586 E87.22103
G1 X124.720 Y112.141 E87.58259
G1 X124.687 Y112.283 E87.59585
G1 X124.687 Y120.941 E88.38317
G1 X121.941 Y123.687 E88.73621
G1 X119.142 Y123.687 E88.99076
G1 X118.840 Y123.873 E89.02302
G1 X118.699 Y124.155 E89.05168
G1 X115.014 Y125.379 E89.40472
G1 X114.688 Y125.216 E89.43788
G1 X114.446 Y125.196 E89.45995
G1 X114.117 Y125.299 E89.49130
G1 X113.120 Y125.200 E89.58242
G1 X112.995 Y125.213 E89.59387
G1 X112.719 Y125.299 E89.62012
G1 X111.722 Y125.200 E89.71124
G1 X111.597 Y125.213 E89.72269
G1 X111.321 Y125.299 E89.74893
G1 X110.112 Y125.179 E89.85947
G1 X109.981 Y125.194 E89.87143
G1 X109.422 Y125.379 E89.92494
G1 X106.113 Y123.720 E90.26159
G1 X105.971 Y123.687 E90.27484
G1 X95.376 Y123.687 E91.23818
G1 X95.075 Y123.873 E91.27043
G1 X94.933 Y124.155 E91.29910
G1 X91.249 Y125.379 E91.65214
G1 X90.923 Y125.216 E91.68529
G1 X90.681 Y125.196 E91.70737
G1 X90.352 Y125.299 E91.73872
G1 X89.355 Y125.200 E91.82984
G1 X89.229 Y125.213 E91.84129
G1 X88.954 Y125.299 E91.86754
G1 X87.957 Y125.200 E91.95865
G1 X87.831 Y125.213 E91.97010
G1 X87.556 Y125.299 E91.99635
G1 X86.559 Y125.200 E92.08747
G1 X86.433 Y125.213 E92.09892
G1 X86.158 Y125.299 E92.12517
G1 X84.619 Y125.146 E92.26580
G1 X84.488 Y125.161 E92.27777
G1 X84.344 Y125.209 E92.29153
G1 X81.375 Y123.720 E92.59356
G1 X81.233 Y123.687 E92.60682
G1 X78.059 Y123.687 E92.89546
G1 X75.313 Y120.941 E93.24849
G1 X75.313 Y79.059 E97.05686
G1 X77.418 Y76.954 E97.32757
G1 X77.913 Y77.342 F7800.000
G1 X78.318 Y76.938 E97.37954 F1800.000
G1 X81.384 Y76.938 E97.65835
G1 X81.592 Y76.861 E97.67857
G1 X82.703 Y75.917 E97.81113
G1 X84.566 Y75.335 E97.98855
G1 X85.563 Y75.434 E98.07967
G1 X85.688 Y75.422 E98.09112
G1 X85.964 Y75.335 E98.11736
G1 X86.968 Y75.435 E98.20913
G1 X90.396 Y75.426 E98.52081
G1 X92.240 Y76.455 E98.71291
G1 X92.441 Y76.780 E98.74764
G1 X92.725 Y76.938 E98.77719
G1 X105.226 Y76.938 E99.91390
G1 X105.467 Y76.832 E99.93781
G1 X105.832 Y76.433 E99.98708
G1 X106.963 Y75.734 E100.10794
G1 X108.051 Y75.426 E100.21073
G1 X110.790 Y75.426 E100.45983
G1 X111.127 Y75.335 E100.49152
G1 X112.124 Y75.434 E100.58263
G1 X112.249 Y75.422 E100.59409
G1 X112.525 Y75.335 E100.62033
G1 X113.645 Y75.447 E100.72264
G1 X114.237 Y75.361 E100.77703 F1800.000
G1 X117.421 Y75.858 E101.07007
G1 X118.835 Y76.878 E101.22858
G1 X119.022 Y76.938 E101.24648
G1 X121.682 Y76.938 E101.48840
G1 X124.062 Y79.318 E101.79436
G1 X124.062 Y87.958 E102.58000
G1 X124.248 Y88.259 E102.61225
G1 X124.802 Y88.537 E102.66861
G1 X125.873 Y91.760 E102.97745
G1 X125.854 Y91.893 E102.98959
G1 X126.084 Y93.139 E103.10484
G1 X125.898 Y94.451 E103.22534
G1 X124.095 Y98.047 E103.59107
G1 X124.062 Y98.189 E103.60433
G1 X124.062 Y101.921 E103.94375
G1 X124.248 Y102.223 E103.97600
G1 X124.795 Y102.497 E104.03164
G1 X125.870 Y105.731 E104.34151
G1 X125.854 Y105.839 E104.35136
G1 X126.084 Y107.085 E104.46661
G1 X125.898 Y108.397 E104.58711
G1 X124.095 Y111.993 E104.95284
G1 X124.062 Y112.135 E104.96610
G1 X124.062 Y120.682 E105.74333
G1 X121.682 Y123.062 E106.04930
G1 X118.756 Y123.062 E106.31539
G1 X118.454 Y123.248 E106.34765
G1 X118.256 Y123.643 E106.38786
G1 X115.063 Y124.704 E106.69383
G1 X114.743 Y124.544 E106.72638
G1 X114.501 Y124.524 E106.74846
G1 X114.052 Y124.665 E106.79118
G1 X113.055 Y124.566 E106.88230
G1 X112.930 Y124.578 E106.89375
G1 X112.654 Y124.665 E106.92000
G1 X111.657 Y124.566 E107.01111
G1 X111.532 Y124.578 E107.02256
G1 X111.256 Y124.665 E107.04881
G1 X110.041 Y124.544 E107.15988
G1 X109.910 Y124.559 E107.17184
G1 X109.471 Y124.704 E107.21392
G1 X106.260 Y123.095 E107.54047
G1 X106.119 Y123.062 E107.55373
G1 X94.991 Y123.062 E108.56558
G1 X94.689 Y123.248 E108.59784
G1 X94.491 Y123.643 E108.63805
G1 X91.297 Y124.704 E108.94402
G1 X90.977 Y124.544 E108.97657
