(Project A_cecilia-plate)
(Created by Estlcam version 11 build 11,040)
(Machining time about 00:01:56 hours)

(Required tools:)
(Drill 2mm)

G90
M03 S24000
G00 Z5.0000


(No. 1: Drill 1)
G00 X58.8964 Y73.4998
G00 Z0.5000
G01 Z-2.0000 F600 S24000
G00 Z0.5000
G00 Z-1.5000
G01 Z-4.0000
G00 Z0.5000
G00 Z-3.5000
G01 Z-5.0000
G00 Z5.0000


(No. 2: Drill 2)
G00 X34.4962 Y99.9996 Z5.0000
G00 Z0.5000
G01 Z-2.0000 F600
G00 Z0.5000
G00 Z-1.5000
G01 Z-4.0000
G00 Z0.5000
G00 Z-3.5000
G01 Z-5.0000
G00 Z5.0000


(No. 3: Drill 3)
G00 X83.4963 Y99.9996 Z5.0000
G00 Z0.5000
G01 Z-2.0000 F600
G00 Z0.5000
G00 Z-1.5000
G01 Z-4.0000
G00 Z0.5000
G00 Z-3.5000
G01 Z-5.0000
G00 Z5.0000


(No. 4: Drill 4)
G00 X99.9962 Y106.6998 Z5.0000
G00 Z0.5000
G01 Z-2.0000 F600
G00 Z0.5000
G00 Z-1.5000
G01 Z-4.0000
G00 Z0.5000
G00 Z-3.5000
G01 Z-5.0000
G00 Z5.0000


(No. 5: Drill 13)
G00 X109.9962 Y141.9999 Z5.0000
G00 Z0.5000
G01 Z-2.0000 F600
G00 Z0.5000
G00 Z-1.5000
G01 Z-4.0000
G00 Z0.5000
G00 Z-3.5000
G01 Z-5.0000
G00 Z5.0000


(No. 6: Drill 9)
G00 X115.1961 Y157.4998 Z5.0000
G00 Z0.5000
G01 Z-2.0000 F600
G00 Z0.5000
G00 Z-1.5000
G01 Z-4.0000
G00 Z0.5000
G00 Z-3.5000
G01 Z-5.0000
G00 Z5.0000


(No. 7: Drill 14)
G00 X109.9962 Y165.9999 Z5.0000
G00 Z0.5000
G01 Z-2.0000 F600
G00 Z0.5000
G00 Z-1.5000
G01 Z-4.0000
G00 Z0.5000
G00 Z-3.5000
G01 Z-5.0000
G00 Z5.0000


(No. 8: Drill 10)
G00 X131.0961 Y148.4998 Z5.0000
G00 Z0.5000
G01 Z-2.0000 F600
G00 Z0.5000
G00 Z-1.5000
G01 Z-4.0000
G00 Z0.5000
G00 Z-3.5000
G01 Z-5.0000
G00 Z5.0000


(No. 9: Drill 11)
G00 X143.0961 Y157.4997 Z5.0000
G00 Z0.5000
G01 Z-2.0000 F600
G00 Z0.5000
G00 Z-1.5000
G01 Z-4.0000
G00 Z0.5000
G00 Z-3.5000
G01 Z-5.0000
G00 Z5.0000


(No. 10: Drill 6)
G00 X148.1961 Y105.3998 Z5.0000
G00 Z0.5000
G01 Z-2.0000 F600
G00 Z0.5000
G00 Z-1.5000
G01 Z-4.0000
G00 Z0.5000
G00 Z-3.5000
G01 Z-5.0000
G00 Z5.0000


(No. 11: Drill 5)
G00 X131.0961 Y73.4998 Z5.0000
G00 Z0.5000
G01 Z-2.0000 F600
G00 Z0.5000
G00 Z-1.5000
G01 Z-4.0000
G00 Z0.5000
G00 Z-3.5000
G01 Z-5.0000
G00 Z5.0000


(No. 12: Drill 12)
G00 X79.9961 Y141.9999 Z5.0000
G00 Z0.5000
G01 Z-2.0000 F600
G00 Z0.5000
G00 Z-1.5000
G01 Z-4.0000
G00 Z0.5000
G00 Z-3.5000
G01 Z-5.0000
G00 Z5.0000


(No. 13: Drill 7)
G00 X83.4963 Y157.9996 Z5.0000
G00 Z0.5000
G01 Z-2.0000 F600
G00 Z0.5000
G00 Z-1.5000
G01 Z-4.0000
G00 Z0.5000
G00 Z-3.5000
G01 Z-5.0000
G00 Z5.0000


(No. 14: Drill 15)
G00 X79.9961 Y165.9997 Z5.0000
G00 Z0.5000
G01 Z-2.0000 F600
G00 Z0.5000
G00 Z-1.5000
G01 Z-4.0000
G00 Z0.5000
G00 Z-3.5000
G01 Z-5.0000
G00 Z5.0000


(No. 15: Drill 8)
G00 X58.8963 Y148.4998 Z5.0000
G00 Z0.5000
G01 Z-2.0000 F600
G00 Z0.5000
G00 Z-1.5000
G01 Z-4.0000
G00 Z0.5000
G00 Z-3.5000
G01 Z-5.0000
G00 Z5.0000


(No. 16: Drill 16)
G00 X34.4962 Y157.9998 Z5.0000
G00 Z0.5000
G01 Z-2.0000 F600
G00 Z0.5000
G00 Z-1.5000
G01 Z-4.0000
G00 Z0.5000
G00 Z-3.5000
G01 Z-5.0000
G00 Z5.0000
G00 X0.0000 Y0.0000

M05
M30
