(Project A_cecilia-plate)
(Created by Estlcam version 11 build 11,040)
(Machining time about 00:03:56 hours)

(Required tools:)
(End mill 3mm)

G90
M03 S24000
G00 Z5.0000


(No. 1: Helical drill 1)
G00 X38.2464 Y29.2732
G00 Z0.5000
G02 X37.8710 Y29.0565 Z0.1000 I-0.2503 J0.0000 F600 S24000
G02 Y29.4900 Z-0.3000 I0.1251 J0.2167
G02 X38.2464 Y29.2732 Z-0.7000 I0.1251 J-0.2167
G02 X37.8710 Y29.0565 Z-1.1000 I-0.2503 J0.0000
G02 Y29.4900 Z-1.5000 I0.1251 J0.2167
G02 X38.2464 Y29.2732 Z-1.9000 I0.1251 J-0.2167
G02 X37.8710 Y29.0565 Z-2.3000 I-0.2503 J0.0000
G02 Y29.4900 Z-2.7000 I0.1251 J0.2167
G02 X38.2464 Y29.2732 Z-3.1000 I0.1251 J-0.2167
G02 X37.8710 Y29.0565 Z-3.2667 I-0.2503 J0.0000
G02 Y29.4900 Z-3.4333 I0.1251 J0.2167
G02 X38.2464 Y29.2732 Z-3.6000 I0.1251 J-0.2167
G02 X37.8710 Y29.0565 I-0.2503 J0.0000
G02 Y29.4900 I0.1251 J0.2167
G02 X38.2464 Y29.2732 I0.1251 J-0.2167
G02 X37.9962 Z-3.1000 I-0.1251 J0.0000
G00 Z5.0000


(No. 2: Helical drill 2)
G00 X42.6965 Y46.9995 Z5.0000
G00 Z0.5000
G02 X41.6462 Y46.3931 Z0.1000 I-0.7002 J0.0000 F600
G02 Y47.6059 Z-0.3000 I0.3501 J0.6064
G02 X42.6965 Y46.9995 Z-0.7000 I0.3501 J-0.6064
G02 X41.6462 Y46.3931 Z-1.1000 I-0.7002 J0.0000
G02 Y47.6059 Z-1.5000 I0.3501 J0.6064
G02 X42.6965 Y46.9995 Z-1.9000 I0.3501 J-0.6064
G02 X41.6462 Y46.3931 Z-2.3000 I-0.7002 J0.0000
G02 Y47.6059 Z-2.7000 I0.3501 J0.6064
G02 X42.6965 Y46.9995 Z-3.1000 I0.3501 J-0.6064
G02 X41.6462 Y46.3931 Z-3.2667 I-0.7002 J0.0000
G02 Y47.6059 Z-3.4333 I0.3501 J0.6064
G02 X42.6965 Y46.9995 Z-3.6000 I0.3501 J-0.6064
G02 X41.6462 Y46.3931 I-0.7002 J0.0000
G02 Y47.6059 I0.3501 J0.6064
G02 X42.6965 Y46.9995 I0.3501 J-0.6064
G02 X41.9963 Z-3.1000 I-0.3501 J0.0000
G00 Z5.0000


(No. 3: Helical drill 3)
G00 X56.6963 Y46.9998 Z5.0000
G00 Z0.5000
G02 X55.6459 Y46.3933 Z0.1000 I-0.7003 J0.0000 F600
G02 Y47.6063 Z-0.3000 I0.3501 J0.6065
G02 X56.6963 Y46.9998 Z-0.7000 I0.3501 J-0.6065
G02 X55.6459 Y46.3933 Z-1.1000 I-0.7003 J0.0000
G02 Y47.6063 Z-1.5000 I0.3501 J0.6065
G02 X56.6963 Y46.9998 Z-1.9000 I0.3501 J-0.6065
G02 X55.6459 Y46.3933 Z-2.3000 I-0.7003 J0.0000
G02 Y47.6063 Z-2.7000 I0.3501 J0.6065
G02 X56.6963 Y46.9998 Z-3.1000 I0.3501 J-0.6065
G02 X55.6459 Y46.3933 Z-3.2667 I-0.7003 J0.0000
G02 Y47.6063 Z-3.4333 I0.3501 J0.6065
G02 X56.6963 Y46.9998 Z-3.6000 I0.3501 J-0.6065
G02 X55.6459 Y46.3933 I-0.7003 J0.0000
G02 Y47.6063 I0.3501 J0.6065
G02 X56.6963 Y46.9998 I0.3501 J-0.6065
G02 X55.9961 Z-3.1000 I-0.3501 J0.0000
G00 Z5.0000


(No. 4: Helical drill 5)
G00 X56.6964 Y62.9994 Z5.0000
G00 Z0.5000
G02 X55.6458 Y62.3929 Z0.1000 I-0.7004 J0.0000 F600
G02 Y63.6059 Z-0.3000 I0.3502 J0.6065
G02 X56.6964 Y62.9994 Z-0.7000 I0.3502 J-0.6065
G02 X55.6458 Y62.3929 Z-1.1000 I-0.7004 J0.0000
G02 Y63.6059 Z-1.5000 I0.3502 J0.6065
G02 X56.6964 Y62.9994 Z-1.9000 I0.3502 J-0.6065
G02 X55.6458 Y62.3929 Z-2.3000 I-0.7004 J0.0000
G02 Y63.6059 Z-2.7000 I0.3502 J0.6065
G02 X56.6964 Y62.9994 Z-3.1000 I0.3502 J-0.6065
G02 X55.6458 Y62.3929 Z-3.2667 I-0.7004 J0.0000
G02 Y63.6059 Z-3.4333 I0.3502 J0.6065
G02 X56.6964 Y62.9994 Z-3.6000 I0.3502 J-0.6065
G02 X55.6458 Y62.3929 I-0.7004 J0.0000
G02 Y63.6059 I0.3502 J0.6065
G02 X56.6964 Y62.9994 I0.3502 J-0.6065
G02 X55.9960 Z-3.1000 I-0.3502 J0.0000
G00 Z5.0000


(No. 5: Helical drill 4)
G00 X42.6964 Y63.0000 Z5.0000
G00 Z0.5000
G02 X41.6458 Y62.3935 Z0.1000 I-0.7004 J0.0000 F600
G02 Y63.6065 Z-0.3000 I0.3502 J0.6065
G02 X42.6964 Y63.0000 Z-0.7000 I0.3502 J-0.6065
G02 X41.6458 Y62.3935 Z-1.1000 I-0.7004 J0.0000
G02 Y63.6065 Z-1.5000 I0.3502 J0.6065
G02 X42.6964 Y63.0000 Z-1.9000 I0.3502 J-0.6065
G02 X41.6458 Y62.3935 Z-2.3000 I-0.7004 J0.0000
G02 Y63.6065 Z-2.7000 I0.3502 J0.6065
G02 X42.6964 Y63.0000 Z-3.1000 I0.3502 J-0.6065
G02 X41.6458 Y62.3935 Z-3.2667 I-0.7004 J0.0000
G02 Y63.6065 Z-3.4333 I0.3502 J0.6065
G02 X42.6964 Y63.0000 Z-3.6000 I0.3502 J-0.6065
G02 X41.6458 Y62.3935 I-0.7004 J0.0000
G02 Y63.6065 I0.3502 J0.6065
G02 X42.6964 Y63.0000 I0.3502 J-0.6065
G02 X41.9960 Z-3.1000 I-0.3502 J0.0000
G00 Z5.0000


(No. 6: Hole 4)
G00 X83.0968 Y73.3760 Z5.0000
G00 Z0.5000
G01 Z-1.2000 F600
G02 X82.5058 Y74.7922 I1.8825 J1.6169 F1200
G01 X82.4974 Y74.9991
G01 X82.5057 Y75.2058
G02 X85.0362 Y77.4997 I2.4933 J-0.2078
G01 X104.9562
G02 Y72.4997 I0.0385 J-2.5000
G01 X85.0168 Y72.5001
G02 X83.0968 Y73.3760 I-0.0215 J2.4954
G01 Z-2.4000 F600
G02 X82.5058 Y74.7922 I1.8825 J1.6169 F1200
G01 X82.4974 Y74.9991
G01 X82.5057 Y75.2058
G02 X85.0362 Y77.4997 I2.4933 J-0.2078
G01 X104.9562
G02 Y72.4997 I0.0385 J-2.5000
G01 X85.0168 Y72.5001
G02 X83.0968 Y73.3760 I-0.0215 J2.4954
G01 Z-3.6000 F600
G02 X82.5058 Y74.7922 I1.8825 J1.6169 F1200
G01 X82.4974 Y74.9991
G01 X82.5057 Y75.2058
G02 X85.0362 Y77.4997 I2.4933 J-0.2078
G01 X104.9562
G02 Y72.4997 I0.0385 J-2.5000
G01 X85.0168 Y72.5001
G02 X83.0968 Y73.3760 I-0.0215 J2.4954
G00 Z5.0000


(No. 7: Hole 3)
G00 X82.6928 Y34.0284 Z5.0000
G00 Z0.5000
G01 Z-1.2000 F600
G02 X82.5058 Y34.7922 I2.2803 J0.9630 F1200
G01 X82.4974 Y34.9991
G01 X82.5057 Y35.2058
G02 X85.0362 Y37.4997 I2.4933 J-0.2078
G01 X104.9562
G02 Y32.4997 I0.0385 J-2.5000
G01 X85.0362
G02 X82.6928 Y34.0284 I-0.0364 J2.5047
G01 Z-2.4000 F600
G02 X82.5058 Y34.7922 I2.2803 J0.9630 F1200
G01 X82.4974 Y34.9991
G01 X82.5057 Y35.2058
G02 X85.0362 Y37.4997 I2.4933 J-0.2078
G01 X104.9562
G02 Y32.4997 I0.0385 J-2.5000
G01 X85.0362
G02 X82.6928 Y34.0284 I-0.0364 J2.5047
G01 Z-3.6000 F600
G02 X82.5058 Y34.7922 I2.2803 J0.9630 F1200
G01 X82.4974 Y34.9991
G01 X82.5057 Y35.2058
G02 X85.0362 Y37.4997 I2.4933 J-0.2078
G01 X104.9562
G02 Y32.4997 I0.0385 J-2.5000
G01 X85.0362
G02 X82.6928 Y34.0284 I-0.0364 J2.5047
G00 Z5.0000


(No. 8: Helical drill 6)
G00 X95.2462 Y7.9996 Z5.0000
G00 Z0.5000
G02 X94.8709 Y7.7829 Z0.1000 I-0.2502 J0.0000 F600
G02 Y8.2163 Z-0.3000 I0.1251 J0.2167
G02 X95.2462 Y7.9996 Z-0.7000 I0.1251 J-0.2167
G02 X94.8709 Y7.7829 Z-1.1000 I-0.2502 J0.0000
G02 Y8.2163 Z-1.5000 I0.1251 J0.2167
G02 X95.2462 Y7.9996 Z-1.9000 I0.1251 J-0.2167
G02 X94.8709 Y7.7829 Z-2.3000 I-0.2502 J0.0000
G02 Y8.2163 Z-2.7000 I0.1251 J0.2167
G02 X95.2462 Y7.9996 Z-3.1000 I0.1251 J-0.2167
G02 X94.8709 Y7.7829 Z-3.2667 I-0.2502 J0.0000
G02 Y8.2163 Z-3.4333 I0.1251 J0.2167
G02 X95.2462 Y7.9996 Z-3.6000 I0.1251 J-0.2167
G02 X94.8709 Y7.7829 I-0.2502 J0.0000
G02 Y8.2163 I0.1251 J0.2167
G02 X95.2462 Y7.9996 I0.1251 J-0.2167
G02 X94.9960 Z-3.1000 I-0.1251 J0.0000
G00 Z5.0000


(No. 9: Helical drill 9)
G00 X134.6968 Y46.9998 Z5.0000
G00 Z0.5000
G02 X133.6464 Y46.3933 Z0.1000 I-0.7003 J0.0000 F600
G02 Y47.6063 Z-0.3000 I0.3502 J0.6065
G02 X134.6968 Y46.9998 Z-0.7000 I0.3502 J-0.6065
G02 X133.6464 Y46.3933 Z-1.1000 I-0.7003 J0.0000
G02 Y47.6063 Z-1.5000 I0.3502 J0.6065
G02 X134.6968 Y46.9998 Z-1.9000 I0.3502 J-0.6065
G02 X133.6464 Y46.3933 Z-2.3000 I-0.7003 J0.0000
G02 Y47.6063 Z-2.7000 I0.3502 J0.6065
G02 X134.6968 Y46.9998 Z-3.1000 I0.3502 J-0.6065
G02 X133.6464 Y46.3933 Z-3.2667 I-0.7003 J0.0000
G02 Y47.6063 Z-3.4333 I0.3502 J0.6065
G02 X134.6968 Y46.9998 Z-3.6000 I0.3502 J-0.6065
G02 X133.6464 Y46.3933 I-0.7003 J0.0000
G02 Y47.6063 I0.3502 J0.6065
G02 X134.6968 Y46.9998 I0.3502 J-0.6065
G02 X133.9965 Z-3.1000 I-0.3502 J0.0000
G00 Z5.0000


(No. 10: Helical drill 8)
G00 X148.6965 Y46.9999 Z5.0000
G00 Z0.5000
G02 X147.6462 Y46.3935 Z0.1000 I-0.7002 J0.0000 F600
G02 Y47.6063 Z-0.3000 I0.3501 J0.6064
G02 X148.6965 Y46.9999 Z-0.7000 I0.3501 J-0.6064
G02 X147.6462 Y46.3935 Z-1.1000 I-0.7002 J0.0000
G02 Y47.6063 Z-1.5000 I0.3501 J0.6064
G02 X148.6965 Y46.9999 Z-1.9000 I0.3501 J-0.6064
G02 X147.6462 Y46.3935 Z-2.3000 I-0.7002 J0.0000
G02 Y47.6063 Z-2.7000 I0.3501 J0.6064
G02 X148.6965 Y46.9999 Z-3.1000 I0.3501 J-0.6064
G02 X147.6462 Y46.3935 Z-3.2667 I-0.7002 J0.0000
G02 Y47.6063 Z-3.4333 I0.3501 J0.6064
G02 X148.6965 Y46.9999 Z-3.6000 I0.3501 J-0.6064
G02 X147.6462 Y46.3935 I-0.7002 J0.0000
G02 Y47.6063 I0.3501 J0.6064
G02 X148.6965 Y46.9999 I0.3501 J-0.6064
G02 X147.9963 Z-3.1000 I-0.3501 J0.0000
G00 Z5.0000


(No. 11: Helical drill 10)
G00 X148.6965 Y62.9999 Z5.0000
G00 Z0.5000
G02 X147.6462 Y62.3935 Z0.1000 I-0.7002 J0.0000 F600
G02 Y63.6063 Z-0.3000 I0.3501 J0.6064
G02 X148.6965 Y62.9999 Z-0.7000 I0.3501 J-0.6064
G02 X147.6462 Y62.3935 Z-1.1000 I-0.7002 J0.0000
G02 Y63.6063 Z-1.5000 I0.3501 J0.6064
G02 X148.6965 Y62.9999 Z-1.9000 I0.3501 J-0.6064
G02 X147.6462 Y62.3935 Z-2.3000 I-0.7002 J0.0000
G02 Y63.6063 Z-2.7000 I0.3501 J0.6064
G02 X148.6965 Y62.9999 Z-3.1000 I0.3501 J-0.6064
G02 X147.6462 Y62.3935 Z-3.2667 I-0.7002 J0.0000
G02 Y63.6063 Z-3.4333 I0.3501 J0.6064
G02 X148.6965 Y62.9999 Z-3.6000 I0.3501 J-0.6064
G02 X147.6462 Y62.3935 I-0.7002 J0.0000
G02 Y63.6063 I0.3501 J0.6064
G02 X148.6965 Y62.9999 I0.3501 J-0.6064
G02 X147.9963 Z-3.1000 I-0.3501 J0.0000
G00 Z5.0000


(No. 12: Helical drill 11)
G00 X134.6966 Y63.0000 Z5.0000
G00 Z0.5000
G02 X133.6461 Y62.3935 Z0.1000 I-0.7003 J0.0000 F600
G02 Y63.6065 Z-0.3000 I0.3502 J0.6065
G02 X134.6966 Y63.0000 Z-0.7000 I0.3502 J-0.6065
G02 X133.6461 Y62.3935 Z-1.1000 I-0.7003 J0.0000
G02 Y63.6065 Z-1.5000 I0.3502 J0.6065
G02 X134.6966 Y63.0000 Z-1.9000 I0.3502 J-0.6065
G02 X133.6461 Y62.3935 Z-2.3000 I-0.7003 J0.0000
G02 Y63.6065 Z-2.7000 I0.3502 J0.6065
G02 X134.6966 Y63.0000 Z-3.1000 I0.3502 J-0.6065
G02 X133.6461 Y62.3935 Z-3.2667 I-0.7003 J0.0000
G02 Y63.6065 Z-3.4333 I0.3502 J0.6065
G02 X134.6966 Y63.0000 Z-3.6000 I0.3502 J-0.6065
G02 X133.6461 Y62.3935 I-0.7003 J0.0000
G02 Y63.6065 I0.3502 J0.6065
G02 X134.6966 Y63.0000 I0.3502 J-0.6065
G02 X133.9963 Z-3.1000 I-0.3502 J0.0000
G00 Z5.0000


(No. 13: Helical drill 12)
G00 X131.0962 Y73.4996 Z5.0000
G00 Z0.5000
G01 Z-1.2000 F600
G00 Z0.5000
G00 Z-0.7000
G01 Z-2.4000
G00 Z0.5000
G00 Z-1.9000
G01 Z-3.6000
G00 Z5.0000


(No. 14: Helical drill 7)
G00 X152.2466 Y29.2729 Z5.0000
G00 Z0.5000
G02 X151.8713 Y29.0562 Z0.1000 I-0.2502 J0.0000 F600
G02 Y29.4896 Z-0.3000 I0.1251 J0.2167
G02 X152.2466 Y29.2729 Z-0.7000 I0.1251 J-0.2167
G02 X151.8713 Y29.0562 Z-1.1000 I-0.2502 J0.0000
G02 Y29.4896 Z-1.5000 I0.1251 J0.2167
G02 X152.2466 Y29.2729 Z-1.9000 I0.1251 J-0.2167
G02 X151.8713 Y29.0562 Z-2.3000 I-0.2502 J0.0000
G02 Y29.4896 Z-2.7000 I0.1251 J0.2167
G02 X152.2466 Y29.2729 Z-3.1000 I0.1251 J-0.2167
G02 X151.8713 Y29.0562 Z-3.2667 I-0.2502 J0.0000
G02 Y29.4896 Z-3.4333 I0.1251 J0.2167
G02 X152.2466 Y29.2729 Z-3.6000 I0.1251 J-0.2167
G02 X151.8713 Y29.0562 I-0.2502 J0.0000
G02 Y29.4896 I0.1251 J0.2167
G02 X152.2466 Y29.2729 I0.1251 J-0.2167
G02 X151.9964 Z-3.1000 I-0.1251 J0.0000
G00 Z5.0000


(No. 15: Helical drill 13)
G00 X182.2463 Y94.9994 Z5.0000
G00 Z0.5000
G02 X181.8710 Y94.7828 Z0.1000 I-0.2502 J0.0000 F600
G02 Y95.2161 Z-0.3000 I0.1251 J0.2167
G02 X182.2463 Y94.9994 Z-0.7000 I0.1251 J-0.2167
G02 X181.8710 Y94.7828 Z-1.1000 I-0.2502 J0.0000
G02 Y95.2161 Z-1.5000 I0.1251 J0.2167
G02 X182.2463 Y94.9994 Z-1.9000 I0.1251 J-0.2167
G02 X181.8710 Y94.7828 Z-2.3000 I-0.2502 J0.0000
G02 Y95.2161 Z-2.7000 I0.1251 J0.2167
G02 X182.2463 Y94.9994 Z-3.1000 I0.1251 J-0.2167
G02 X181.8710 Y94.7828 Z-3.2667 I-0.2502 J0.0000
G02 Y95.2161 Z-3.4333 I0.1251 J0.2167
G02 X182.2463 Y94.9994 Z-3.6000 I0.1251 J-0.2167
G02 X181.8710 Y94.7828 I-0.2502 J0.0000
G02 Y95.2161 I0.1251 J0.2167
G02 X182.2463 Y94.9994 I0.1251 J-0.2167
G02 X181.9961 Z-3.1000 I-0.1251 J0.0000
G00 Z5.0000


(No. 16: Helical drill 14)
G00 X131.2465 Y174.2022 Z5.0000
G00 Z0.5000
G02 X130.8712 Y173.9855 Z0.1000 I-0.2502 J0.0000 F600
G02 Y174.4188 Z-0.3000 I0.1251 J0.2167
G02 X131.2465 Y174.2022 Z-0.7000 I0.1251 J-0.2167
G02 X130.8712 Y173.9855 Z-1.1000 I-0.2502 J0.0000
G02 Y174.4188 Z-1.5000 I0.1251 J0.2167
G02 X131.2465 Y174.2022 Z-1.9000 I0.1251 J-0.2167
G02 X130.8712 Y173.9855 Z-2.3000 I-0.2502 J0.0000
G02 Y174.4188 Z-2.7000 I0.1251 J0.2167
G02 X131.2465 Y174.2022 Z-3.1000 I0.1251 J-0.2167
G02 X130.8712 Y173.9855 Z-3.2667 I-0.2502 J0.0000
G02 Y174.4188 Z-3.4333 I0.1251 J0.2167
G02 X131.2465 Y174.2022 Z-3.6000 I0.1251 J-0.2167
G02 X130.8712 Y173.9855 I-0.2502 J0.0000
G02 Y174.4188 I0.1251 J0.2167
G02 X131.2465 Y174.2022 I0.1251 J-0.2167
G02 X130.9963 Z-3.1000 I-0.1251 J0.0000
G00 Z5.0000


(No. 17: Helical drill 15)
G00 X59.2466 Y174.2019 Z5.0000
G00 Z0.5000
G02 X58.8713 Y173.9852 Z0.1000 I-0.2502 J0.0000 F600
G02 Y174.4186 Z-0.3000 I0.1251 J0.2167
G02 X59.2466 Y174.2019 Z-0.7000 I0.1251 J-0.2167
G02 X58.8713 Y173.9852 Z-1.1000 I-0.2502 J0.0000
G02 Y174.4186 Z-1.5000 I0.1251 J0.2167
G02 X59.2466 Y174.2019 Z-1.9000 I0.1251 J-0.2167
G02 X58.8713 Y173.9852 Z-2.3000 I-0.2502 J0.0000
G02 Y174.4186 Z-2.7000 I0.1251 J0.2167
G02 X59.2466 Y174.2019 Z-3.1000 I0.1251 J-0.2167
G02 X58.8713 Y173.9852 Z-3.2667 I-0.2502 J0.0000
G02 Y174.4186 Z-3.4333 I0.1251 J0.2167
G02 X59.2466 Y174.2019 Z-3.6000 I0.1251 J-0.2167
G02 X58.8713 Y173.9852 I-0.2502 J0.0000
G02 Y174.4186 I0.1251 J0.2167
G02 X59.2466 Y174.2019 I0.1251 J-0.2167
G02 X58.9964 Z-3.1000 I-0.1251 J0.0000
G00 Z5.0000


(No. 18: Helical drill 16)
G00 X8.2464 Y94.9995 Z5.0000
G00 Z0.5000
G02 X7.8710 Y94.7828 Z0.1000 I-0.2502 J0.0000 F600
G02 Y95.2162 Z-0.3000 I0.1251 J0.2167
G02 X8.2464 Y94.9995 Z-0.7000 I0.1251 J-0.2167
G02 X7.8710 Y94.7828 Z-1.1000 I-0.2502 J0.0000
G02 Y95.2162 Z-1.5000 I0.1251 J0.2167
G02 X8.2464 Y94.9995 Z-1.9000 I0.1251 J-0.2167
G02 X7.8710 Y94.7828 Z-2.3000 I-0.2502 J0.0000
G02 Y95.2162 Z-2.7000 I0.1251 J0.2167
G02 X8.2464 Y94.9995 Z-3.1000 I0.1251 J-0.2167
G02 X7.8710 Y94.7828 Z-3.2667 I-0.2502 J0.0000
G02 Y95.2162 Z-3.4333 I0.1251 J0.2167
G02 X8.2464 Y94.9995 Z-3.6000 I0.1251 J-0.2167
G02 X7.8710 Y94.7828 I-0.2502 J0.0000
G02 Y95.2162 I0.1251 J0.2167
G02 X8.2464 Y94.9995 I0.1251 J-0.2167
G02 X7.9961 Z-3.1000 I-0.1251 J0.0000
G00 Z5.0000


(No. 19: Part 1)
G00 X28.9962 Y25.2519 Z5.0000
G00 Z0.5000
G01 Z-1.2000 F600
G01 X29.0037 Y25.1021 F1200
G03 X29.5359 Y24.0994 I1.4934 J0.1500
G01 X35.1255 Y19.3145
G01 X35.2318 Y19.2313
G01 X41.0873 Y14.9503
G01 X41.1991 Y14.8758
G01 X47.2910 Y11.0986
G01 X47.4075 Y11.0332
G01 X53.7063 Y7.7597
G01 X53.8265 Y7.7037
G01 X60.3026 Y4.9338
G01 X60.4259 Y4.8873
G01 X67.0497 Y2.6211
G01 X67.1752 Y2.5840
G01 X73.9173 Y0.8214
G01 X74.0445 Y0.7939
G01 X80.8752 Y-0.4651
G01 X81.0035 Y-0.4832
G01 X87.8934 Y-1.2385
G01 X88.0223 Y-1.2472
G01 X94.9417 Y-1.4990
G01 X95.0708 Y-1.4983
G01 X101.9901 Y-1.2465
G01 X102.1190 Y-1.2364
G01 X109.0088 Y-0.4810
G01 X109.1369 Y-0.4615
G01 X115.9676 Y0.7975
G01 X116.0945 Y0.8265
G01 X122.8365 Y2.5891
G01 X122.9616 Y2.6275
G01 X129.5855 Y4.8937
G01 X129.7082 Y4.9417
G01 X136.1843 Y7.7115
G01 X136.3039 Y7.7689
G01 X142.6027 Y11.0424
G01 X142.7184 Y11.1091
G01 X148.8103 Y14.8864
G01 X148.9213 Y14.9621
G01 X154.7768 Y19.2431
G01 X154.8822 Y19.3275
G01 X160.4717 Y24.1124
G03 X160.9962 Y25.2719 I-0.9762 J1.1400
G01 Y81.9997
G01 X189.2976
G03 X190.7895 Y83.3425 I-0.0001 J1.5003
G03 X191.4962 Y94.9951 I-95.7812 J11.6568
G01 X191.3497 Y100.3152
G01 X191.3435 Y100.4179
G01 X190.9112 Y105.6185
G01 X190.8994 Y105.7203
G01 X190.1862 Y110.8576
G01 X190.1689 Y110.9583
G01 X189.1807 Y116.0227
G01 X189.1580 Y116.1218
G01 X187.9008 Y121.1035
G01 X187.8728 Y121.2010
G01 X186.3524 Y126.0901
G01 X186.3193 Y126.1856
G01 X184.5416 Y130.9726
G01 X184.5034 Y131.0659
G01 X182.4744 Y135.7409
G01 X182.4314 Y135.8319
G01 X180.1569 Y140.3851
G01 X180.1091 Y140.4735
G01 X177.5951 Y144.8952
G01 X177.5427 Y144.9810
G01 X174.7950 Y149.2614
G01 X174.7380 Y149.3442
G01 X171.7626 Y153.4736
G01 X171.7012 Y153.5533
G01 X168.5040 Y157.5219
G01 X168.4382 Y157.5984
G01 X165.0250 Y161.3964
G01 X164.9551 Y161.4694
G01 X161.3319 Y165.0871
G01 X161.2578 Y165.1564
G01 X157.4304 Y168.5841
G01 X157.3525 Y168.6494
G01 X153.3268 Y171.8772
G01 X153.2451 Y171.9385
G01 X149.0271 Y174.9567
G01 X148.9418 Y175.0135
G01 X144.5373 Y177.8123
G01 X144.4488 Y177.8646
G01 X139.8637 Y180.4342
G01 X139.7722 Y180.4816
G01 X135.0520 Y182.7937
G01 X134.9582 Y182.8358
G01 X130.1521 Y184.8691
G01 X130.0564 Y184.9059
G01 X125.1758 Y186.6610
G01 X125.0786 Y186.6924
G01 X120.1349 Y188.1701
G01 X120.0365 Y188.1961
G01 X115.0410 Y189.3971
G01 X114.9417 Y189.4176
G01 X109.9058 Y190.3426
G01 X109.8058 Y190.3576
G01 X104.7410 Y191.0073
G01 X104.6406 Y191.0169
G01 X99.5581 Y191.3919
G01 X99.4575 Y191.3961
G01 X94.3689 Y191.4973
G01 X94.2683 Y191.4960
G01 X89.1849 Y191.3240
G01 X89.0846 Y191.3173
G01 X84.0176 Y190.8728
G01 X83.9178 Y190.8608
G01 X78.8788 Y190.1444
G01 X78.7797 Y190.1270
G01 X73.7800 Y189.1394
G01 X73.6817 Y189.1167
G01 X68.7328 Y187.8587
G01 X68.6356 Y187.8306
G01 X63.7488 Y186.3028
G01 X63.6530 Y186.2695
G01 X58.8397 Y184.4726
G01 X58.7455 Y184.4339
G01 X54.0170 Y182.3686
G01 X53.9248 Y182.3247
G01 X49.2926 Y179.9917
G01 X49.2026 Y179.9426
G01 X44.6780 Y177.3425
G01 X44.5905 Y177.2883
G01 X40.1850 Y174.4218
G01 X40.1005 Y174.3628
G01 X35.8602 Y171.2570
G01 X35.7793 Y171.1935
G01 X31.7460 Y167.8822
G01 X31.6689 Y167.8146
G01 X27.8473 Y164.3080
G01 X27.7744 Y164.2365
G01 X24.1691 Y160.5451
G01 X24.1004 Y160.4701
G01 X20.7161 Y156.6043
G01 X20.6518 Y156.5259
G01 X17.4932 Y152.4961
G01 X17.4334 Y152.4146
G01 X14.5051 Y148.2313
G01 X14.4500 Y148.1469
G01 X11.7567 Y143.8204
G01 X11.7063 Y143.7333
G01 X9.2526 Y139.2741
G01 X9.2070 Y139.1845
G01 X6.9977 Y134.6029
G01 X6.9570 Y134.5110
G01 X4.9968 Y129.8175
G01 X4.9610 Y129.7236
G01 X3.2545 Y124.9285
G01 X3.2238 Y124.8326
G01 X1.7756 Y119.9465
G01 X1.7501 Y119.8489
G01 X0.5650 Y114.8820
G01 X0.5447 Y114.7829
G01 X-0.3727 Y109.7457
G01 X-0.3876 Y109.6454
G01 X-1.0325 Y104.5481
G01 X-1.0420 Y104.4468
G01 X-1.4098 Y99.3001
G01 X-1.4138 Y99.1980
G01 X-1.4998 Y94.0121
G01 X-1.4981 Y93.9096
G01 X-1.2976 Y88.6950
G01 X-1.2903 Y88.5924
G01 X-0.7986 Y83.3594
G03 X0.7148 Y81.9997 I1.4937 J0.1405
G01 X28.9962
G01 Y25.2519
G01 Z-2.4000 F600
G01 X29.0037 Y25.1021 F1200
G03 X29.5359 Y24.0994 I1.4934 J0.1500
G01 X35.1255 Y19.3145
G01 X35.2318 Y19.2313
G01 X41.0873 Y14.9503
G01 X41.1991 Y14.8758
G01 X47.2910 Y11.0986
G01 X47.4075 Y11.0332
G01 X53.7063 Y7.7597
G01 X53.8265 Y7.7037
G01 X60.3026 Y4.9338
G01 X60.4259 Y4.8873
G01 X67.0497 Y2.6211
G01 X67.1752 Y2.5840
G01 X73.9173 Y0.8214
G01 X74.0445 Y0.7939
G01 X80.8752 Y-0.4651
G01 X81.0035 Y-0.4832
G01 X87.8934 Y-1.2385
G01 X88.0223 Y-1.2472
G01 X94.9417 Y-1.4990
G01 X95.0708 Y-1.4983
G01 X101.9901 Y-1.2465
G01 X102.1190 Y-1.2364
G01 X109.0088 Y-0.4810
G01 X109.1369 Y-0.4615
G01 X115.9676 Y0.7975
G01 X116.0945 Y0.8265
G01 X122.8365 Y2.5891
G01 X122.9616 Y2.6275
G01 X129.5855 Y4.8937
G01 X129.7082 Y4.9417
G01 X136.1843 Y7.7115
G01 X136.3039 Y7.7689
G01 X142.6027 Y11.0424
G01 X142.7184 Y11.1091
G01 X148.8103 Y14.8864
G01 X148.9213 Y14.9621
G01 X154.7768 Y19.2431
G01 X154.8822 Y19.3275
G01 X160.4717 Y24.1124
G03 X160.9962 Y25.2719 I-0.9762 J1.1400
G01 Y81.9997
G01 X189.2976
G03 X190.7895 Y83.3425 I-0.0001 J1.5003
G03 X191.4962 Y94.9951 I-95.7812 J11.6568
G01 X191.3497 Y100.3152
G01 X191.3435 Y100.4179
G01 X190.9112 Y105.6185
G01 X190.8994 Y105.7203
G01 X190.1862 Y110.8576
G01 X190.1689 Y110.9583
G01 X189.1807 Y116.0227
G01 X189.1580 Y116.1218
G01 X187.9008 Y121.1035
G01 X187.8728 Y121.2010
G01 X186.3524 Y126.0901
G01 X186.3193 Y126.1856
G01 X184.5416 Y130.9726
G01 X184.5034 Y131.0659
G01 X182.4744 Y135.7409
G01 X182.4314 Y135.8319
G01 X180.1569 Y140.3851
G01 X180.1091 Y140.4735
G01 X177.5951 Y144.8952
G01 X177.5427 Y144.9810
G01 X174.7950 Y149.2614
G01 X174.7380 Y149.3442
G01 X171.7626 Y153.4736
G01 X171.7012 Y153.5533
G01 X168.5040 Y157.5219
G01 X168.4382 Y157.5984
G01 X165.0250 Y161.3964
G01 X164.9551 Y161.4694
G01 X161.3319 Y165.0871
G01 X161.2578 Y165.1564
G01 X157.4304 Y168.5841
G01 X157.3525 Y168.6494
G01 X153.3268 Y171.8772
G01 X153.2451 Y171.9385
G01 X149.0271 Y174.9567
G01 X148.9418 Y175.0135
G01 X144.5373 Y177.8123
G01 X144.4488 Y177.8646
G01 X139.8637 Y180.4342
G01 X139.7722 Y180.4816
G01 X135.0520 Y182.7937
G01 X134.9582 Y182.8358
G01 X130.1521 Y184.8691
G01 X130.0564 Y184.9059
G01 X125.1758 Y186.6610
G01 X125.0786 Y186.6924
G01 X120.1349 Y188.1701
G01 X120.0365 Y188.1961
G01 X115.0410 Y189.3971
G01 X114.9417 Y189.4176
G01 X109.9058 Y190.3426
G01 X109.8058 Y190.3576
G01 X104.7410 Y191.0073
G01 X104.6406 Y191.0169
G01 X99.5581 Y191.3919
G01 X99.4575 Y191.3961
G01 X94.3689 Y191.4973
G01 X94.2683 Y191.4960
G01 X89.1849 Y191.3240
G01 X89.0846 Y191.3173
G01 X84.0176 Y190.8728
G01 X83.9178 Y190.8608
G01 X78.8788 Y190.1444
G01 X78.7797 Y190.1270
G01 X73.7800 Y189.1394
G01 X73.6817 Y189.1167
G01 X68.7328 Y187.8587
G01 X68.6356 Y187.8306
G01 X63.7488 Y186.3028
G01 X63.6530 Y186.2695
G01 X58.8397 Y184.4726
G01 X58.7455 Y184.4339
G01 X54.0170 Y182.3686
G01 X53.9248 Y182.3247
G01 X49.2926 Y179.9917
G01 X49.2026 Y179.9426
G01 X44.6780 Y177.3425
G01 X44.5905 Y177.2883
G01 X40.1850 Y174.4218
G01 X40.1005 Y174.3628
G01 X35.8602 Y171.2570
G01 X35.7793 Y171.1935
G01 X31.7460 Y167.8822
G01 X31.6689 Y167.8146
G01 X27.8473 Y164.3080
G01 X27.7744 Y164.2365
G01 X24.1691 Y160.5451
G01 X24.1004 Y160.4701
G01 X20.7161 Y156.6043
G01 X20.6518 Y156.5259
G01 X17.4932 Y152.4961
G01 X17.4334 Y152.4146
G01 X14.5051 Y148.2313
G01 X14.4500 Y148.1469
G01 X11.7567 Y143.8204
G01 X11.7063 Y143.7333
G01 X9.2526 Y139.2741
G01 X9.2070 Y139.1845
G01 X6.9977 Y134.6029
G01 X6.9570 Y134.5110
G01 X4.9968 Y129.8175
G01 X4.9610 Y129.7236
G01 X3.2545 Y124.9285
G01 X3.2238 Y124.8326
G01 X1.7756 Y119.9465
G01 X1.7501 Y119.8489
G01 X0.5650 Y114.8820
G01 X0.5447 Y114.7829
G01 X-0.3727 Y109.7457
G01 X-0.3876 Y109.6454
G01 X-1.0325 Y104.5481
G01 X-1.0420 Y104.4468
G01 X-1.4098 Y99.3001
G01 X-1.4138 Y99.1980
G01 X-1.4998 Y94.0121
G01 X-1.4981 Y93.9096
G01 X-1.2976 Y88.6950
G01 X-1.2903 Y88.5924
G01 X-0.7986 Y83.3594
G03 X0.7148 Y81.9997 I1.4937 J0.1405
G01 X28.9962
G01 Y25.2519
G01 Z-3.6000 F600
G01 X29.0037 Y25.1021 F1200
G03 X29.5359 Y24.0994 I1.4934 J0.1500
G01 X35.1255 Y19.3145
G01 X35.2318 Y19.2313
G01 X41.0873 Y14.9503
G01 X41.1991 Y14.8758
G01 X47.2910 Y11.0986
G01 X47.4075 Y11.0332
G01 X53.7063 Y7.7597
G01 X53.8265 Y7.7037
G01 X60.3026 Y4.9338
G01 X60.4259 Y4.8873
G01 X67.0497 Y2.6211
G01 X67.1752 Y2.5840
G01 X73.9173 Y0.8214
G01 X74.0445 Y0.7939
G01 X80.8752 Y-0.4651
G01 X81.0035 Y-0.4832
G01 X87.8934 Y-1.2385
G01 X88.0223 Y-1.2472
G01 X94.9417 Y-1.4990
G01 X95.0708 Y-1.4983
G01 X101.9901 Y-1.2465
G01 X102.1190 Y-1.2364
G01 X109.0088 Y-0.4810
G01 X109.1369 Y-0.4615
G01 X115.9676 Y0.7975
G01 X116.0945 Y0.8265
G01 X122.8365 Y2.5891
G01 X122.9616 Y2.6275
G01 X129.5855 Y4.8937
G01 X129.7082 Y4.9417
G01 X136.1843 Y7.7115
G01 X136.3039 Y7.7689
G01 X142.6027 Y11.0424
G01 X142.7184 Y11.1091
G01 X148.8103 Y14.8864
G01 X148.9213 Y14.9621
G01 X154.7768 Y19.2431
G01 X154.8822 Y19.3275
G01 X160.4717 Y24.1124
G03 X160.9962 Y25.2719 I-0.9762 J1.1400
G01 Y81.9997
G01 X189.2976
G03 X190.7895 Y83.3425 I-0.0001 J1.5003
G03 X191.4962 Y94.9951 I-95.7812 J11.6568
G01 X191.3497 Y100.3152
G01 X191.3435 Y100.4179
G01 X190.9112 Y105.6185
G01 X190.8994 Y105.7203
G01 X190.1862 Y110.8576
G01 X190.1689 Y110.9583
G01 X189.1807 Y116.0227
G01 X189.1580 Y116.1218
G01 X187.9008 Y121.1035
G01 X187.8728 Y121.2010
G01 X186.3524 Y126.0901
G01 X186.3193 Y126.1856
G01 X184.5416 Y130.9726
G01 X184.5034 Y131.0659
G01 X182.4744 Y135.7409
G01 X182.4314 Y135.8319
G01 X180.1569 Y140.3851
G01 X180.1091 Y140.4735
G01 X177.5951 Y144.8952
G01 X177.5427 Y144.9810
G01 X174.7950 Y149.2614
G01 X174.7380 Y149.3442
G01 X171.7626 Y153.4736
G01 X171.7012 Y153.5533
G01 X168.5040 Y157.5219
G01 X168.4382 Y157.5984
G01 X165.0250 Y161.3964
G01 X164.9551 Y161.4694
G01 X161.3319 Y165.0871
G01 X161.2578 Y165.1564
G01 X157.4304 Y168.5841
G01 X157.3525 Y168.6494
G01 X153.3268 Y171.8772
G01 X153.2451 Y171.9385
G01 X149.0271 Y174.9567
G01 X148.9418 Y175.0135
G01 X144.5373 Y177.8123
G01 X144.4488 Y177.8646
G01 X139.8637 Y180.4342
G01 X139.7722 Y180.4816
G01 X135.0520 Y182.7937
G01 X134.9582 Y182.8358
G01 X130.1521 Y184.8691
G01 X130.0564 Y184.9059
G01 X125.1758 Y186.6610
G01 X125.0786 Y186.6924
G01 X120.1349 Y188.1701
G01 X120.0365 Y188.1961
G01 X115.0410 Y189.3971
G01 X114.9417 Y189.4176
G01 X109.9058 Y190.3426
G01 X109.8058 Y190.3576
G01 X104.7410 Y191.0073
G01 X104.6406 Y191.0169
G01 X99.5581 Y191.3919
G01 X99.4575 Y191.3961
G01 X94.3689 Y191.4973
G01 X94.2683 Y191.4960
G01 X89.1849 Y191.3240
G01 X89.0846 Y191.3173
G01 X84.0176 Y190.8728
G01 X83.9178 Y190.8608
G01 X78.8788 Y190.1444
G01 X78.7797 Y190.1270
G01 X73.7800 Y189.1394
G01 X73.6817 Y189.1167
G01 X68.7328 Y187.8587
G01 X68.6356 Y187.8306
G01 X63.7488 Y186.3028
G01 X63.6530 Y186.2695
G01 X58.8397 Y184.4726
G01 X58.7455 Y184.4339
G01 X54.0170 Y182.3686
G01 X53.9248 Y182.3247
G01 X49.2926 Y179.9917
G01 X49.2026 Y179.9426
G01 X44.6780 Y177.3425
G01 X44.5905 Y177.2883
G01 X40.1850 Y174.4218
G01 X40.1005 Y174.3628
G01 X35.8602 Y171.2570
G01 X35.7793 Y171.1935
G01 X31.7460 Y167.8822
G01 X31.6689 Y167.8146
G01 X27.8473 Y164.3080
G01 X27.7744 Y164.2365
G01 X24.1691 Y160.5451
G01 X24.1004 Y160.4701
G01 X20.7161 Y156.6043
G01 X20.6518 Y156.5259
G01 X17.4932 Y152.4961
G01 X17.4334 Y152.4146
G01 X14.5051 Y148.2313
G01 X14.4500 Y148.1469
G01 X11.7567 Y143.8204
G01 X11.7063 Y143.7333
G01 X9.2526 Y139.2741
G01 X9.2070 Y139.1845
G01 X6.9977 Y134.6029
G01 X6.9570 Y134.5110
G01 X4.9968 Y129.8175
G01 X4.9610 Y129.7236
G01 X3.2545 Y124.9285
G01 X3.2238 Y124.8326
G01 X1.7756 Y119.9465
G01 X1.7501 Y119.8489
G01 X0.5650 Y114.8820
G01 X0.5447 Y114.7829
G01 X-0.3727 Y109.7457
G01 X-0.3876 Y109.6454
G01 X-1.0325 Y104.5481
G01 X-1.0420 Y104.4468
G01 X-1.4098 Y99.3001
G01 X-1.4138 Y99.1980
G01 X-1.4998 Y94.0121
G01 X-1.4981 Y93.9096
G01 X-1.2976 Y88.6950
G01 X-1.2903 Y88.5924
G01 X-0.7986 Y83.3594
G03 X0.7148 Y81.9997 I1.4937 J0.1405
G01 X28.9962
G01 Y25.2519
G00 Z5.0000
G00 X0.0000 Y0.0000

M05
M30
